X: 21192
M: 2/4
L: 1/16
K: G
V: 1 name="5"
dBGB g2g2 | cBAB e2e2 | dBGB g2g2 | dcBc e2e2 |\
d2ee c2ee | BcBA GFED | G2^G2 A2Bc | cEFG "^D.C."G2 |]
d2dB c2cA | B2BG E2FG | A2Bc A2F2 | G4 "^D.C."G2 |]


